public/assets/images/about/icons/02.svg

<svg width="60" height="60" viewBox="0 0 60 60" fill="none" xmlns="http://www.w3.org/2000/svg">
<path d="M19.8195 32.2805C24.5176 32.2805 28.3391 28.459 28.3391 23.7609C28.3391 19.0629 24.5164 15.2414 19.8195 15.2414C15.1227 15.2414 11.3 19.0641 11.3 23.7609C11.3 28.4578 15.1215 32.2805 19.8195 32.2805ZM19.8195 16.6465C23.7418 16.6465 26.9328 19.8375 26.9328 23.7598C26.9328 27.682 23.7418 30.8731 19.8195 30.8731C15.8973 30.8731 12.7063 27.682 12.7063 23.7598C12.7063 19.8375 15.8973 16.6465 19.8195 16.6465ZM53.0129 1.75781H32.3973C30.2609 1.75781 28.523 3.4957 28.523 5.63203V16.4156C28.523 18.552 30.2609 20.2898 32.3973 20.2898H34.2793L33.3664 26.5406C33.323 26.8336 33.4695 27.1219 33.7297 27.2625C33.834 27.3188 33.9477 27.3457 34.0613 27.3457C34.2312 27.3457 34.4 27.2848 34.5312 27.1652L42.1801 20.2898H53.0105C55.1469 20.2898 56.8848 18.552 56.8848 16.4156V5.63203C56.8871 3.4957 55.1492 1.75781 53.0129 1.75781ZM55.4809 16.4156C55.4809 17.7762 54.3734 18.8836 53.0129 18.8836H41.9129C41.7395 18.8836 41.5719 18.948 41.443 19.0641L35.041 24.8191L35.791 19.6887C35.8203 19.4871 35.7605 19.282 35.6269 19.1273C35.4934 18.9727 35.2988 18.8836 35.0949 18.8836H32.3996C31.0391 18.8836 29.9316 17.7762 29.9316 16.4156V5.63203C29.9316 4.27148 31.0391 3.16406 32.3996 3.16406H53.0141C54.3746 3.16406 55.482 4.27148 55.482 5.63203V16.4156H55.4809ZM45.2727 43.2926L39.4016 42.0527L36.4086 36.852C36.2832 36.634 36.0512 36.4992 35.7992 36.4992C35.5473 36.4992 35.3152 36.634 35.1898 36.852L32.1969 42.0527L32.1781 42.0563C29.0023 38.5606 24.5223 36.5637 19.8207 36.5637C10.6086 36.5637 3.11328 44.059 3.11328 53.2711V54.0949C3.11328 56.3813 4.97305 58.241 7.25938 58.241H32.3832C34.6695 58.241 36.5293 56.3813 36.5293 54.0949V53.4633L41.2789 55.5855C41.3703 55.6266 41.4688 55.6465 41.566 55.6465C41.7125 55.6465 41.8566 55.6008 41.9797 55.5117C42.1836 55.3641 42.2926 55.118 42.2656 54.8684L41.6305 48.9023L45.6512 44.4492C45.8199 44.2629 45.8762 44.0004 45.7977 43.7602C45.718 43.5234 45.5187 43.3441 45.2727 43.2926ZM32.382 56.8359H7.2582C5.74766 56.8359 4.51836 55.6066 4.51836 54.0961V53.2723C4.51836 44.8348 11.382 37.9711 19.8195 37.9711C23.8461 37.9711 27.6957 39.5719 30.5574 42.3996L26.3258 43.2926C26.0797 43.3441 25.8805 43.5234 25.802 43.7637C25.7246 44.0027 25.7797 44.2652 25.9484 44.4527L29.9691 48.9059L29.334 54.8719C29.307 55.1215 29.416 55.3676 29.6199 55.5152C29.8238 55.6629 30.091 55.691 30.3195 55.5879L35.1195 53.4434V54.0973C35.1219 55.6066 33.8926 56.8359 32.382 56.8359ZM40.373 48.1957C40.2395 48.3445 40.175 48.5426 40.1961 48.7418L40.7352 53.8055L36.0852 51.7277C35.9937 51.6867 35.8965 51.6668 35.798 51.6668C35.6996 51.6668 35.6023 51.6867 35.5109 51.7277L30.8609 53.8055L31.4 48.7418C31.4211 48.5426 31.3566 48.3445 31.223 48.1957L27.8105 44.4164L32.7934 43.3641C32.9891 43.3231 33.1578 43.2 33.2574 43.0266L35.798 38.6121L38.3387 43.0266C38.4383 43.2 38.607 43.3231 38.8027 43.3641L43.7855 44.4164L40.373 48.1957ZM33.9687 7.27383C33.9687 6.88594 34.284 6.5707 34.6719 6.5707H43.4328C43.8207 6.5707 44.1359 6.88594 44.1359 7.27383C44.1359 7.66172 43.8207 7.97695 43.4328 7.97695H34.6719C34.284 7.97695 33.9687 7.66172 33.9687 7.27383ZM51.4414 11.0238C51.4414 11.4117 51.1262 11.727 50.7383 11.727H34.6719C34.284 11.727 33.9687 11.4117 33.9687 11.0238C33.9687 10.6359 34.284 10.3207 34.6719 10.3207H50.7371C51.1262 10.3207 51.4414 10.6359 51.4414 11.0238ZM51.4414 14.7738C51.4414 15.1617 51.1262 15.477 50.7383 15.477H34.6719C34.284 15.477 33.9687 15.1617 33.9687 14.7738C33.9687 14.3859 34.284 14.0707 34.6719 14.0707H50.7371C51.1262 14.0707 51.4414 14.3859 51.4414 14.7738Z" fill="#0F62FE"/>
</svg>

<svg xmlns="http://www.w3.org/2000/svg" width="60" height="60" fill="none" viewBox="0 0 60 60"><path fill="#0f62fe" d="M19.82 32.28c4.698 0 8.52-3.821 8.52-8.52 0-4.697-3.824-8.519-8.52-8.519-4.697 0-8.52 3.823-8.52 8.52s3.821 8.52 8.52 8.52m0-15.634a7.12 7.12 0 0 1 7.113 7.114 7.12 7.12 0 0 1-7.113 7.113c-3.923 0-7.114-3.191-7.114-7.113a7.12 7.12 0 0 1 7.114-7.114M53.013 1.758H32.397a3.88 3.88 0 0 0-3.874 3.874v10.784a3.88 3.88 0 0 0 3.874 3.874h1.882l-.913 6.25a.705.705 0 0 0 .695.806c.17 0 .339-.061.47-.18l7.65-6.876h10.83a3.88 3.88 0 0 0 3.874-3.874V5.632a3.875 3.875 0 0 0-3.872-3.874m2.468 14.658a2.47 2.47 0 0 1-2.468 2.468h-11.1a.7.7 0 0 0-.47.18l-6.402 5.755.75-5.13a.704.704 0 0 0-.696-.805H32.4a2.47 2.47 0 0 1-2.468-2.468V5.632A2.47 2.47 0 0 1 32.4 3.164h20.614a2.47 2.47 0 0 1 2.468 2.468zM45.273 43.293l-5.871-1.24-2.993-5.201a.703.703 0 0 0-1.22 0l-2.992 5.2-.019.004a16.7 16.7 0 0 0-12.357-5.492c-9.212 0-16.708 7.495-16.708 16.707v.824A4.15 4.15 0 0 0 7.26 58.24h25.124a4.15 4.15 0 0 0 4.146-4.146v-.632l4.75 2.123a.7.7 0 0 0 .7-.074.7.7 0 0 0 .287-.644l-.636-5.966 4.021-4.453a.701.701 0 0 0-.378-1.156M32.382 56.836H7.258c-1.51 0-2.74-1.23-2.74-2.74v-.824c0-8.437 6.864-15.3 15.302-15.3 4.026 0 7.876 1.6 10.737 4.428l-4.231.893a.703.703 0 0 0-.378 1.16l4.021 4.453-.635 5.966a.702.702 0 0 0 .986.716l4.8-2.145v.654a2.74 2.74 0 0 1-2.738 2.739m7.991-8.64a.7.7 0 0 0-.177.546l.54 5.064-4.65-2.078a.7.7 0 0 0-.575 0l-4.65 2.078.539-5.064a.7.7 0 0 0-.177-.546l-3.412-3.78 4.982-1.052a.7.7 0 0 0 .464-.337l2.541-4.415 2.54 4.415c.1.173.269.296.465.337l4.983 1.052zM33.969 7.274c0-.388.315-.703.703-.703h8.76a.704.704 0 0 1 0 1.406h-8.76a.704.704 0 0 1-.703-.703m17.472 3.75a.704.704 0 0 1-.703.703H34.672a.704.704 0 0 1 0-1.406h16.065c.39 0 .704.315.704.703m0 3.75a.704.704 0 0 1-.703.703H34.672a.704.704 0 0 1 0-1.406h16.065c.39 0 .704.315.704.703"/></svg>
